Newaita/actions/16/kt-stop-all.svg

<svg height="16" viewBox="0 0 16 16" width="16" xmlns="http://www.w3.org/2000/svg"><g fill="#424242"><path d="m1.984375 5.085938h4.628906c.367188 0 .664063.296874.664063.660156v4.632812c0 .363282-.296875.660156-.664063.660156h-4.628906c-.363281 0-.660156-.296874-.660156-.660156v-4.632812c0-.363282.296875-.660156.660156-.660156zm0 0"/><path d="m9.261719 5.085938h4.628906c.367187 0 .664063.296874.664063.660156v4.632812c0 .363282-.296876.660156-.664063.660156h-4.628906c-.367188 0-.660157-.296874-.660157-.660156v-4.632812c0-.363282.292969-.660156.660157-.660156zm0 0"/></g></svg>

<?xml version="1.0" encoding="UTF-8"?>
<svg xmlns="http://www.w3.org/2000/svg" xmlns:xlink="http://www.w3.org/1999/xlink" width="16px" height="16px" viewBox="0 0 16 16" version="1.1">
<g id="surface1">
<path style=" stroke:none;fill-rule:nonzero;fill:rgb(25.882354%,25.882354%,25.882354%);fill-opacity:1;" d="M 1.984375 5.085938 L 6.613281 5.085938 C 6.980469 5.085938 7.277344 5.382812 7.277344 5.746094 L 7.277344 10.378906 C 7.277344 10.742188 6.980469 11.039062 6.613281 11.039062 L 1.984375 11.039062 C 1.621094 11.039062 1.324219 10.742188 1.324219 10.378906 L 1.324219 5.746094 C 1.324219 5.382812 1.621094 5.085938 1.984375 5.085938 Z M 1.984375 5.085938 "/>
<path style=" stroke:none;fill-rule:nonzero;fill:rgb(25.882354%,25.882354%,25.882354%);fill-opacity:1;" d="M 9.261719 5.085938 L 13.890625 5.085938 C 14.257812 5.085938 14.554688 5.382812 14.554688 5.746094 L 14.554688 10.378906 C 14.554688 10.742188 14.257812 11.039062 13.890625 11.039062 L 9.261719 11.039062 C 8.894531 11.039062 8.601562 10.742188 8.601562 10.378906 L 8.601562 5.746094 C 8.601562 5.382812 8.894531 5.085938 9.261719 5.085938 Z M 9.261719 5.085938 "/>
</g>
</svg>
